X:1
T:Bhutan, 76.76.76 D
T:Bhutan, 76.76.76 D
T:William Warren Bentley, 1875
T:Public Domain Courtesy of the Cyber Hymnal™
C:William Warren Bentley, 1875
Z:Public Domain
Z:Courtesy of the Cyber Hymnal™
%%score 1 ( 2 3 )
L:1/8
Q:1/4=107
M:4/4
K:Ab
V:1 treble 
V:2 bass 
V:3 bass 
V:1
 [Ec]2 [Ec]>[DB] [CA]2 [DF]2 | [CE]4 [EA]4 | [EB]2 [EB]>[Ec] [Ed]2 [Ec]2 | [EB]6 z2 | %4
 [Ec]2 [Ec]>[DB] [CA]2 [DF]2 | [CE]4 [EA]4 | [EB]2 [DB]>[CA] [Ec]2 [EB]2 | !fermata![EA]6 z2 | %8
 [EB]2 [EB]>[EB] [EA]2 [EB]2 | [Ec]4 [Ee]4 | [DB]2 [DB]>[DB] [CA]2 [DB]2 | [Ec]6 z2 | %12
 [Fd]2 [Fd]>[Fd] [Fd]2 [Fd]2 | [Fd]4 [Ec]4 | [EA]2 [EA]>[EA] [DG]2 [CA]2 | [EB]6 (3(e=d_c) | %16
 [Ec]2 [Ec]>[DB] [CA]2 [DF]2 | [CE]4 [EA]4 | [EB]2 [EB]>[Ec] [Ed]2 [Ec]2 | [EB]6 z2 | %20
 [Ec]2 [Ec]>[DB] [CA]2 [DF]2 | [CE]4 [EA]4 | [EB]2 [DB]>[CA] [Ec]2 [EB]2 | [EA]8 |] %24
V:2
 [A,,A,]2 [A,,A,]>[A,,A,] [A,,A,]2 [A,,A,]2 | [A,,A,]4 [A,,A,]4 | %2
 [E,G,]2 [E,G,]>[E,A,] [E,B,]2 [E,A,]2 | [E,G,]6 z2 | [A,,A,]2 [A,,A,]>[A,,A,] [A,,A,]2 [A,,A,]2 | %5
 [A,,A,]4 [C,A,]4 | [E,G,]2 [E,G,]>[E,A,] [E,A,]2 [E,D]2 | !fermata![A,,C]6 z2 | %8
 [E,G,]2 [E,G,]>[E,G,] [C,A,]2 [E,G,]2 | A,4 [A,C]4 | [E,G,]2 [E,G,]>[E,G,] [E,A,]2 [E,G,]2 | %11
 A,6 z2 | [D,B,]2 [D,A,]>[D,A,] [D,A,]2 [D,A,]2 | [A,,A,]4 [A,,A,]4 | %14
 [C,A,]2 [C,A,]>[C,A,] [B,,E,]2 [A,,A,]2 | [E,G,]6 z2 | %16
 [A,,A,]2 [A,,A,]>[A,,A,] [A,,A,]2 [A,,A,]2 | [A,,A,]4 [A,,A,]4 | %18
 [E,G,]2 [E,G,]>[E,A,] [E,B,]2 [E,A,]2 | [E,G,]6 z2 | [A,,A,]2 [A,,A,]>[A,,A,] [A,,A,]2 [A,,A,]2 | %21
 [A,,A,]4 [C,A,]4 | [E,G,]2 [E,G,]>[E,A,] [E,A,]2 [E,D]2 | [A,,C]8 |] %24
V:3
 x8 | x8 | x8 | x8 | x8 | x8 | x8 | x8 | x8 | A,4 x4 | x8 | A,6 x2 | x8 | x8 | x8 | x8 | x8 | x8 | %18
 x8 | x8 | x8 | x8 | x8 | x8 |] %24

